assets/img/union.svg

<svg fill="none" height="24" viewBox="0 0 81 24" width="81" xmlns="http://www.w3.org/2000/svg"><path clip-rule="evenodd" d="m12.5301 10.3932c-.5178 0-.9375.4197-.9375.9375v2.6004c0 .5177.4197.9375.9375.9375h2.6297c.5727 0 1.0245.5165.8229 1.0525-.0807.2148-.1757.4136-.2849.5963-.2698.4514-.6168.8244-1.0408 1.1188-.4047.2748-.8672.4809-1.3876.6183-.5204.1178-1.06.1767-1.619.1767-.9443 0-1.77308-.1571-2.48618-.4711-.7131-.3337-1.31057-.795-1.7924-1.3838-.48182-.5889-.84801-1.2857-1.09856-2.0905-.23128-.8048-.34692-1.6783-.34692-2.6204 0-1.0404.13492-1.98254.40474-2.82657.28909-.84404.67456-1.56049 1.15638-2.14935.5011-.60849 1.09857-1.06977 1.7924-1.38383.69383-.33369 1.46474-.50053 2.31274-.50053 1.0215 0 1.9273.26499 2.7175.79496.606.39675 1.1256.986 1.5587 1.76776.2525.45557.7984.68774 1.2783.4854l3.6014-1.5184c.4927-.20775.7153-.7873.4509-1.25215-.946-1.66354-2.1535-2.92397-3.6225-3.7813-1.7153-1.00107-3.7101-1.50160362-5.9843-1.50160362-1.75382 0-3.34385.28461762-4.77006.85385062-1.4262.569233-2.65004 1.364203-3.67152 2.384893-1.0022 1.02069-1.78275 2.25731-2.341673 3.70983-.539646 1.4329-.80946907 3.01302-.80946907 4.74034 0 1.747.27945907 3.3467.83837807 4.7992.558924 1.4329 1.339474 2.6695 2.341674 3.7099 1.0022 1.0207 2.19713 1.8156 3.58479 2.3849 1.40694.5692 2.95842.8538 4.65448.8538 1.2334 0 2.4091-.157 3.5269-.4711 1.1179-.314 2.1393-.7655 3.0645-1.3544.9443-.6085 1.7634-1.3543 2.4573-2.2376.6938-.903 1.2431-1.9335 1.6478-3.0916.2891-.8244.4818-1.7175.5782-2.6793.0702-.7001.1148-1.4574.1339-2.2718.0121-.5176-.4091-.9375-.9268-.9375zm11.7992 11.3334c-.0952.5714.3454 1.0916.9247 1.0916h3.721c.4651 0 .8599-.341.9275-.8011l1.2394-8.4279c.1404-.955 1.4584-1.1001 1.8031-.1984l3.3741 8.8247c.1388.363.4871.6027.8757.6027h.9766c.3826 0 .7267-.2324.8696-.5873l3.6161-8.9793c.3573-.8873 1.6579-.7326 1.7971.2138l1.2575 8.5517c.0677.4601.4625.8011.9275.8011h3.7211c.5793 0 1.0199-.5202.9247-1.0916l-3.3879-20.32517c-.0754-.452032-.4665-.783337-.9248-.783337h-4.1593c-.3934 0-.7449.245596-.8803.614967l-3.2338 8.82654c-.3001.819-1.458.8203-1.7598.0019l-3.2567-8.83033c-.1359-.368389-.487-.613077-.8796-.613077h-4.1609c-.4582 0-.8493.331305-.9247.783337zm34.8261-21.538215c-3.1065 0-5.6248 2.518315-5.6248 5.624815v4.14958c0 1.87132 1.517 3.38832 3.3883 3.38832 1.8712 0 3.3882 1.5169 3.3882 3.3882v1.2369c0 2.5543 2.0708 4.6251 4.6251 4.6251h4.485c2.5543 0 4.6251-2.0708 4.6251-4.6251v-1.1459c0-1.9215 1.5577-3.4792 3.4793-3.4792 1.9215 0 3.4793-1.5578 3.4793-3.47934v-4.05856c0-3.10649-2.5184-5.624815-5.6249-5.624815zm1.515 11.277015c2.183 0 3.9526-1.93751 3.9526-4.32759 0-2.39007-1.7696-4.32761-3.9526-4.32761s-3.9526 1.93754-3.9526 4.32761c0 2.39008 1.7696 4.32759 3.9526 4.32759zm17.0853-4.32759c0 2.39008-1.7697 4.32759-3.9527 4.32759-2.1829 0-3.9526-1.93751-3.9526-4.32759 0-2.39007 1.7697-4.32761 3.9526-4.32761 2.183 0 3.9527 1.93754 3.9527 4.32761zm-13.3979 5.45639c-.5432 0-.9836.4403-.9836.9835v.4306c0 1.0864.8807 1.9671 1.9671 1.9671h.4307c.5431 0 .9835-.4403.9835-.9835v-.4307c0-1.0864-.8807-1.967-1.9671-1.967zm3.3841 1.9471c0-1.0863.8806-1.967 1.967-1.967h.4307c.5432 0 .9835.4403.9835.9835v.4307c0 1.0863-.8807 1.967-1.9671 1.967h-.4306c-.5432 0-.9835-.4403-.9835-.9835z" fill="#fff" fill-rule="evenodd"/></svg>

<svg width="81" height="24" viewBox="0 0 81 24" fill="none" xmlns="http://www.w3.org/2000/svg">
<path fill-rule="evenodd" clip-rule="evenodd" d="M12.5301 10.3932C12.0123 10.3932 11.5926 10.8129 11.5926 11.3307V13.9311C11.5926 14.4488 12.0123 14.8686 12.5301 14.8686H15.1598C15.7325 14.8686 16.1843 15.3851 15.9827 15.9211C15.902 16.1359 15.807 16.3347 15.6978 16.5174C15.428 16.9688 15.081 17.3418 14.657 17.6362C14.2523 17.911 13.7898 18.1171 13.2694 18.2545C12.749 18.3723 12.2094 18.4312 11.6504 18.4312C10.7061 18.4312 9.87732 18.2741 9.16422 17.9601C8.45112 17.6264 7.85365 17.1651 7.37182 16.5763C6.89 15.9874 6.52381 15.2906 6.27326 14.4858C6.04198 13.681 5.92634 12.8075 5.92634 11.8654C5.92634 10.825 6.06126 9.88286 6.33108 9.03883C6.62017 8.19479 7.00564 7.47834 7.48746 6.88948C7.98856 6.28099 8.58603 5.81971 9.27986 5.50565C9.97369 5.17196 10.7446 5.00512 11.5926 5.00512C12.6141 5.00512 13.5199 5.27011 14.3101 5.80008C14.9161 6.19683 15.4357 6.78608 15.8688 7.56784C16.1213 8.02341 16.6672 8.25558 17.1471 8.05324L20.7485 6.53484C21.2412 6.32709 21.4638 5.74754 21.1994 5.28269C20.2534 3.61915 19.0459 2.35872 17.5769 1.50139C15.8616 0.50032 13.8668 -0.000213623 11.5926 -0.000213623C9.83878 -0.000213623 8.24875 0.284404 6.82254 0.853637C5.39634 1.42287 4.1725 2.21784 3.15102 3.23853C2.14882 4.25922 1.36827 5.49584 0.809347 6.94836C0.269701 8.38126 -0.00012207 9.96138 -0.00012207 11.6887C-0.00012207 13.4357 0.279337 15.0354 0.838256 16.4879C1.39718 17.9208 2.17773 19.1574 3.17993 20.1978C4.18213 21.2185 5.37706 22.0134 6.76472 22.5827C8.17166 23.1519 9.72314 23.4365 11.4192 23.4365C12.6526 23.4365 13.8283 23.2795 14.9461 22.9654C16.064 22.6514 17.0854 22.1999 18.0106 21.611C18.9549 21.0025 19.774 20.2567 20.4679 19.3734C21.1617 18.4704 21.711 17.4399 22.1157 16.2818C22.4048 15.4574 22.5975 14.5643 22.6939 13.6025C22.7641 12.9024 22.8087 12.1451 22.8278 11.3307C22.8399 10.8131 22.4187 10.3932 21.901 10.3932H12.5301ZM24.3293 21.7266C24.2341 22.298 24.6747 22.8182 25.254 22.8182H28.975C29.4401 22.8182 29.8349 22.4772 29.9025 22.0171L31.1419 13.5892C31.2823 12.6342 32.6003 12.4891 32.945 13.3908L36.3191 22.2155C36.4579 22.5785 36.8062 22.8182 37.1948 22.8182H38.1714C38.554 22.8182 38.8981 22.5858 39.041 22.2309L42.6571 13.2516C43.0144 12.3643 44.315 12.519 44.4542 13.4654L45.7117 22.0171C45.7794 22.4772 46.1742 22.8182 46.6392 22.8182H50.3603C50.9396 22.8182 51.3802 22.298 51.285 21.7266L47.8971 1.40143C47.8217 0.949398 47.4306 0.618093 46.9723 0.618093H42.813C42.4196 0.618093 42.0681 0.863689 41.9327 1.23306L38.6989 10.0596C38.3988 10.8786 37.2409 10.8799 36.9391 10.0615L33.6824 1.23117C33.5465 0.862781 33.1954 0.618093 32.8028 0.618093H28.6419C28.1837 0.618093 27.7926 0.949398 27.7172 1.40143L24.3293 21.7266ZM59.1554 0.188385C56.0489 0.188385 53.5306 2.7067 53.5306 5.8132V9.96278C53.5306 11.8341 55.0476 13.3511 56.9189 13.3511C58.7901 13.3511 60.3071 14.868 60.3071 16.7393V17.9762C60.3071 20.5305 62.3779 22.6013 64.9322 22.6013H69.4172C71.9715 22.6013 74.0423 20.5305 74.0423 17.9762V16.8303C74.0423 14.9088 75.6 13.3511 77.5216 13.3511C79.4431 13.3511 81.0009 11.7933 81.0009 9.87176V5.8132C81.0009 2.70671 78.4825 0.188385 75.376 0.188385H59.1554ZM60.6704 11.4654C62.8534 11.4654 64.623 9.52789 64.623 7.13781C64.623 4.74774 62.8534 2.8102 60.6704 2.8102C58.4874 2.8102 56.7178 4.74774 56.7178 7.13781C56.7178 9.52789 58.4874 11.4654 60.6704 11.4654ZM77.7557 7.13781C77.7557 9.52789 75.986 11.4654 73.803 11.4654C71.6201 11.4654 69.8504 9.52789 69.8504 7.13781C69.8504 4.74774 71.6201 2.8102 73.803 2.8102C75.986 2.8102 77.7557 4.74774 77.7557 7.13781ZM64.3578 12.5942C63.8146 12.5942 63.3742 13.0345 63.3742 13.5777V14.0083C63.3742 15.0947 64.2549 15.9754 65.3413 15.9754H65.772C66.3151 15.9754 66.7555 15.5351 66.7555 14.9919V14.5612C66.7555 13.4748 65.8748 12.5942 64.7884 12.5942H64.3578ZM67.7419 14.5413C67.7419 13.455 68.6225 12.5743 69.7089 12.5743H70.1396C70.6828 12.5743 71.1231 13.0146 71.1231 13.5578V13.9885C71.1231 15.0748 70.2424 15.9555 69.156 15.9555H68.7254C68.1822 15.9555 67.7419 15.5152 67.7419 14.972V14.5413Z" fill="white"/>
</svg>
